packages/ffe-icons/icons/open/400/sm/history_toggle_off.svg

<svg xmlns="http://www.w3.org/2000/svg" height="20" viewBox="0 -960 960 960" width="20"><path d="M233.948-690Q219-690 208.5-700.552q-10.5-10.551-10.5-25.5Q198-741 208.289-751.5q10.29-10.5 25.5-10.5Q249-762 259.5-751.711q10.5 10.29 10.5 25.5Q270-711 259.448-700.5q-10.551 10.5-25.5 10.5Zm156.263-90Q375-780 364.5-790.552q-10.5-10.551-10.5-25.5Q354-831 364.552-842q10.551-11 25.5-11Q405-853 415.5-842t10.5 25.948q0 14.949-10.289 25.5Q405.421-780 390.211-780Zm179.737-1Q555-781 544.5-791.552q-10.5-10.551-10.5-25.5Q534-832 544.289-842q10.29-10 25.5-10Q585-852 595.5-841.912q10.5 10.087 10.5 25Q606-802 595.448-791.5q-10.551 10.5-25.5 10.5Zm156.263 91Q711-690 700.5-700.552q-10.5-10.551-10.5-25.5Q690-741 700.552-751.5q10.551-10.5 25.5-10.5Q741-762 751.5-751.448q10.5 10.551 10.5 25.5Q762-711 751.711-700.5q-10.29 10.5-25.5 10.5Zm91 156Q802-534 791.5-544.289q-10.5-10.29-10.5-25.5Q781-585 791.552-595.5q10.551-10.5 25.5-10.5Q832-606 842.5-595.711q10.5 10.29 10.5 25.5Q853-555 842.711-544.5q-10.29 10.5-25.5 10.5Zm-.299 180Q802-354 791.5-364.552q-10.5-10.551-10.5-25.5Q781-405 791.552-415.5q10.551-10.5 25.5-10.5Q832-426 842-415.711q10 10.29 10 25.5Q852-375 841.912-364.5q-10.087 10.5-25 10.5Zm-90.701 156Q711-198 700.5-208.289q-10.5-10.29-10.5-25.5Q690-249 700.552-259.5q10.551-10.5 25.5-10.5Q741-270 751.5-259.448q10.5 10.551 10.5 25.5Q762-219 751.711-208.5q-10.29 10.5-25.5 10.5Zm-156.263 90Q555-108 544.5-118.088q-10.5-10.087-10.5-25Q534-158 544.289-168.5q10.29-10.5 25.5-10.5Q585-179 595.5-168.448q10.5 10.551 10.5 25.5Q606-128 595.448-118q-10.551 10-25.5 10Zm-179.737 0Q375-108 364.5-118.088q-10.5-10.087-10.5-25Q354-158 364.552-168.5q10.551-10.5 25.5-10.5Q405-179 415.5-168.448q10.5 10.551 10.5 25.5Q426-128 415.711-118q-10.29 10-25.5 10Zm-156-90Q219-198 208.5-208.289q-10.5-10.29-10.5-25.5Q198-249 208.289-259.5q10.29-10.5 25.5-10.5Q249-270 259.5-259.711q10.5 10.29 10.5 25.5Q270-219 259.711-208.5q-10.29 10.5-25.5 10.5Zm-91.263-156Q128-354 117.5-364.552q-10.5-10.551-10.5-25.5Q107-405 117.289-415.5q10.29-10.5 25.5-10.5Q158-426 168.5-415.711q10.5 10.29 10.5 25.5Q179-375 168.448-364.5q-10.551 10.5-25.5 10.5Zm1-180Q129-534 118.5-544.289q-10.5-10.29-10.5-25.5Q108-585 118.289-595.5q10.29-10.5 25.5-10.5Q159-606 169.5-595.448q10.5 10.551 10.5 25.5Q180-555 169.448-544.5q-10.551 10.5-25.5 10.5ZM516-510l123.664 123.664Q651-375 650.5-361q-.5 14-11.5 25t-25.5 11q-14.5 0-25.577-11.077L455-469q-5-5-8-11.5t-3-14.5v-189q0-15.3 10.289-25.65 10.29-10.35 25.5-10.35Q495-720 505.5-709.65 516-699.3 516-684v174Z"/></svg>

<svg xmlns="http://www.w3.org/2000/svg" height="20" viewBox="0 -960 960 960" width="20"><path d="M233.95-690q-14.95 0-25.45-10.55t-10.5-25.5q0-14.95 10.29-25.45t25.5-10.5q15.21 0 25.71 10.29t10.5 25.5q0 15.21-10.55 25.71t-25.5 10.5Zm156.26-90q-15.21 0-25.71-10.55t-10.5-25.5Q354-831 364.55-842t25.5-11q14.95 0 25.45 11t10.5 25.95q0 14.95-10.29 25.5T390.21-780Zm179.74-1q-14.95 0-25.45-10.55t-10.5-25.5Q534-832 544.29-842t25.5-10q15.21 0 25.71 10.09t10.5 25q0 14.91-10.55 25.41t-25.5 10.5Zm156.26 91q-15.21 0-25.71-10.55t-10.5-25.5q0-14.95 10.55-25.45t25.5-10.5q14.95 0 25.45 10.55t10.5 25.5q0 14.95-10.29 25.45t-25.5 10.5Zm91 156q-15.21 0-25.71-10.29t-10.5-25.5q0-15.21 10.55-25.71t25.5-10.5q14.95 0 25.45 10.29t10.5 25.5q0 15.21-10.29 25.71t-25.5 10.5Zm-.3 180q-14.91 0-25.41-10.55t-10.5-25.5q0-14.95 10.55-25.45t25.5-10.5Q832-426 842-415.71t10 25.5q0 15.21-10.09 25.71t-25 10.5Zm-90.7 156q-15.21 0-25.71-10.29t-10.5-25.5q0-15.21 10.55-25.71t25.5-10.5q14.95 0 25.45 10.55t10.5 25.5q0 14.95-10.29 25.45t-25.5 10.5Zm-156.26 90q-14.95 0-25.45-10.09t-10.5-25q0-14.91 10.29-25.41t25.5-10.5q15.21 0 25.71 10.55t10.5 25.5Q606-128 595.45-118t-25.5 10Zm-179.74 0q-15.21 0-25.71-10.09t-10.5-25q0-14.91 10.55-25.41t25.5-10.5q14.95 0 25.45 10.55t10.5 25.5Q426-128 415.71-118t-25.5 10Zm-156-90q-15.21 0-25.71-10.29t-10.5-25.5q0-15.21 10.29-25.71t25.5-10.5q15.21 0 25.71 10.29t10.5 25.5q0 15.21-10.29 25.71t-25.5 10.5Zm-91.26-156q-14.95 0-25.45-10.55t-10.5-25.5q0-14.95 10.29-25.45t25.5-10.5q15.21 0 25.71 10.29t10.5 25.5q0 15.21-10.55 25.71t-25.5 10.5Zm1-180q-14.95 0-25.45-10.29t-10.5-25.5q0-15.21 10.29-25.71t25.5-10.5q15.21 0 25.71 10.55t10.5 25.5q0 14.95-10.55 25.45t-25.5 10.5ZM516-510l123.66 123.66Q651-375 650.5-361T639-336q-11 11-25.5 11t-25.58-11.08L455-469q-5-5-8-11.5t-3-14.5v-189q0-15.3 10.29-25.65Q464.58-720 479.79-720t25.71 10.35Q516-699.3 516-684v174Z"/></svg>
